!!!!SEGMENT: pl-cz--iii-689--001-008_volckmer-augustin--stabat-mater-ze-wszech-panien.krn
!!!cenid: 17xx:1227
!!!COM: Volckmer, Augustin
!!!COM-rismID: pe30020656
!!!CDT: 1755-~1820
!!!CNT:
!!!OPR: Stabat Mater
!!!OTL: Ze wszech Panien
!!!OMV: 008
!!!PDT:
!!!AGN: Sacred
!!!YEC: Copyright 2022 Narodowy Instytut Fryderyka Chopina (https://polishscores.org)
!!!YEM: License CC-BY-4.0 (https://creativecommons.org/licenses/by/4.0)
!!!SMS-siglum: PL-CZ
!!!SMS-shelfmark: III-689
!!!SMS-shelfwork: 001-008 M
!!!SMS-variant:
!!!SMS-altvar:
!!!NIFC-rismSourceID: 300001407
!!!NIFC-rismChildID: 300001407
!!!NIFC-islandoraID: pl-cz:40317
!!!URL-pdf-islandora: https://repozytorium.nifc.pl/islandora/object/pl-cz%3A40317/datastream/PDF/view
!!!URL-scan: https://polish.musicsources.pl/pl/lokalizacje/galeria/rekopisy/6986/1 @EN{Scan on Polish Music Sources Website} @PL{Skany w portalu Dziedzictwo Muzyki Polskiej w otwartym dostępie}
!!!IIIF:
!!!ONB-nifc: UWAGA: części Stabat Mater: Stała Matka Boleściwa, O jak smutna i strapiona,
!!!AIN: 1 alto 1 bass 2 cor 1 fagot 2 flt 2 oboe 1 organ 1 soprn 1 tenor 1 viola 2 violn
!!!key: c
**kern	**dynam	**kern	**dynam	**kern	**dynam	**kern	**dynam	**kern	**text	**kern	**text	**kern	**text	**kern	**text	**kern	**kern	**kern	**dynam	**kern	**kern	**kern	**kern
*	*	*group4	*	*group4	*	*group4	*	*group3	*	*group3	*	*group3	*	*group3	*	*group2	*group2	*group1	*	*group1	*group1	*group1	*group1
*part15	*	*part14	*	*part13	*	*part12	*	*part11	*	*part10	*	*part9	*	*part8	*	*part7	*part6	*part5	*	*part4	*part3	*part2	*part1
*staff15	*	*staff14	*	*staff13	*	*staff12	*	*staff11	*	*staff10	*	*staff9	*	*staff8	*	*staff7	*staff6	*staff5	*	*staff4	*staff3	*staff2	*staff1
*IGcont	*	*IGacmp	*	*IGacmp	*	*IGacmp	*	*IGcoro	*	*IGcoro	*	*IGcoro	*	*IGcoro	*	*IGacmp	*IGacmp	*IGacmp	*	*IGacmp	*IGacmp	*IGacmp	*IGacmp
*ICklav	*	*ICstr	*	*ICstr	*	*ICstr	*	*ICvox	*	*ICvox	*	*ICvox	*	*ICvox	*	*ICbras	*ICbras	*ICww	*	*ICww	*ICww	*ICww	*ICww
*Iorgan	*	*Iviola	*	*Ivioln	*	*Ivioln	*	*Ibass	*	*Itenor	*	*Ialto	*	*Isoprn	*	*Icor	*Icor	*Ifagot	*	*Ioboe	*Ioboe	*Iflt	*Iflt
*I"Fundamento!	*	*I"Alto Viola Oblg: per expreſsivo.	*	*I"Violino Secundo.	*	*I"Violino Primo.	*	*I"Baſso.	*	*I"Tenore.	*	*I"Alto.	*	*I"Canto.	*	*I"Cors de Caſse Secondo in Dis.	*I"Cors de Caſse Primo in Dis.	*I"Fagotto_	*	*I"Haubois Secunda.	*I"Haubois Primo	*I"Flauto Secondo.	*I"Flauto Primo.
*I'org	*	*I'a-vla	*	*I'vl 2	*	*I'vl 1	*	*I'B	*	*I'T	*	*I'A	*	*I'S	*	*I'cor 2 in E|b	*I'cor 1 in E|b	*I'fag	*	*I'ob 2	*I'ob 1	*I'fl 2	*I'fl 1
*clefF4	*	*clefC3	*	*clefG2	*	*clefG2	*	*clefF4	*	*clefC4	*	*clefC3	*	*clefC1	*	*clefG2	*clefG2	*clefF4	*	*clefG2	*clefG2	*clefG2	*clefG2
*	*	*	*	*	*	*	*	*	*	*	*	*	*	*	*	*ITrd5c9	*ITrd5c9	*	*	*	*	*	*
*k[b-e-a-]	*	*k[b-e-a-]	*	*k[b-e-a-]	*	*k[b-e-a-]	*	*k[b-e-a-]	*	*k[b-e-a-]	*	*k[b-e-a-]	*	*k[b-e-a-]	*	*k[b-e-a-]	*k[b-e-a-]	*k[b-e-a-]	*	*k[b-e-a-]	*k[b-e-a-]	*k[b-e-a-]	*k[b-e-a-]
*c:	*	*c:	*	*c:	*	*c:	*	*c:	*	*c:	*	*c:	*	*c:	*	*c:	*c:	*c:	*	*c:	*c:	*c:	*c:
*M4/4	*	*M4/4	*	*M4/4	*	*M4/4	*	*M4/4	*	*M4/4	*	*M4/4	*	*M4/4	*	*M4/4	*M4/4	*M4/4	*	*M4/4	*M4/4	*M4/4	*M4/4
*met(c)	*	*met(c)	*	*met(c)	*	*met(c)	*	*met(c)	*	*met(C.)	*	*met(c)	*	*met(c)	*	*met(c)	*met(c)	*met(C.)	*	*met(c)	*met(c)	*met(c)	*met(c)
*2\right	*below	*2\right	*below	*2\right	*below	*2\right	*below	*2\right	*	*2\right	*	*2\right	*	*2\right	*	*2\right	*2\right	*2\right	*	*2\right	*2\right	*2\right	*2\right
=1	=1	=1	=1	=1	=1	=1	=1	=1	=1	=1	=1	=1	=1	=1	=1	=1	=1	=1	=1	=1	=1	=1	=1
!	!	!	!	!	!	!	!	!	!	!LO:TX:t=P:problem:niewidoczne znaki przykluczowe	!	!LO:TX:t=P:problem:niewidoczne znaki przykluczowe	!	!LO:TX:t=P:problem:niewidoczne znaki przykluczowe	!	!	!	!	!	!	!	!	!
!LO:TX:t=P:problem:niewidoczne znaki przykluczowe	!	!	!	!LO:TX:t=P:problem:niewidoczne znaki przykluczowe	!	!LO:TX:t=P:problem:niewidoczne znaki przykluczowe	!	!LO:TX:t=P:problem:niewidoczne znaki przykluczowe	!	!LO:TX:a:t=adagio	!	!LO:TX:a:t=Adagio	!	!LO:TX:a:t=3	!	!	!	!	!	!	!LO:TX:t=P:problem:niewidoczne znaki przykluczowe	!	!LO:TX:a:t=Recitativo # et Aria IV. # et Adagio Tacet. #
!LO:TX:b:t=Ze wszech Panien	!	!LO:TX:t=P:problem:niewidoczne znaki przykluczowe	!	!LO:TX:t=P:problem:mixed beam	!	!LO:TX:t=P:problem:mixed beam	!	!LO:TX:b:t=3	!	!LO:TX:b:t=3	!	!LO:TX:a:t=3	!	!LO:TX:a:t=Adagio	!	!	!	!LO:TX:t=P:problem:niewidoczne znaki przykluczowe	!	!	!LO:TX:b:t=Tutti	!LO:TX:a:t=Recitativo|Aria et Adagio Tacent. #	!LO:TX:a:t=No 6.
!LO:TX:a:t=adagio	!	!LO:TX:a:t=Adagio	!	!LO:TX:a:t=Adagio.:rj	!LO:DY:a:rj	!LO:TX:a:t=Adagio:rj	!LO:DY:rj	!LO:TX:a:t=adagio	!	!LO:TX:a:t=Tutti:rj	!	!LO:TX:b:t=Tutti:rj	!	!LO:TX:a:t=Tutti:rj	!	!LO:TX:a:t=Adagio	!LO:TX:a:t=Adagio	!LO:TX:a:t=Adagio	!	!LO:TX:t=P:problem:niewidoczne znaki przykluczowe	!LO:TX:a:t=adagio	!LO:TX:a:t=No 6.	!
4E-\	.	4B-/	.	8G/L	fp	8e-/L	p	0r	.	0r	.	0r	.	0r	.	4G/	4e-\	4EE-/	.	4g/	4ee-\	1ryy	1ryy
.	.	.	.	8b-\	.	8dd-X\	.	.	.	.	.	.	.	.	.	.	.	.	.	.	.	.	.
!	!	!	!LO:DY:t=pf&colon;	!	!	!	!	!	!	!	!	!	!	!	!	!	!	!	!	!	!	!	!
4r	p	4r	fp	8b-\	.	8dd-\	.	.	.	.	.	.	.	.	.	4r	4r	4r	.	4r	4r	.	.
.	.	.	.	8b-\J	.	8dd-\J	.	.	.	.	.	.	.	.	.	.	.	.	.	.	.	.	.
!	!	!	!	!	!	!	!LO:DY:rj	!	!	!	!	!	!	!	!	!	!	!	!LO:DY:t=p.	!	!	!	!
4E-\	.	(2g\	.	4b-\	.	4dd-\	f	.	.	.	.	.	.	.	.	2r	2r	4E-\	p	4r	4r	.	.
!	!LO:DY:t=fr	!	!	!	!	!	!	!	!	!	!	!	!	!	!	!	!	!	!LO:DY:t=f&colon;	!	!	!	!
4En\	f	.	.	8a-\L	.	(8cc\L	.	.	.	.	.	.	.	.	.	.	.	4En\	f	8a-/L	8cc\L	.	.
.	.	.	.	8g\J	.	8b-\J)	.	.	.	.	.	.	.	.	.	.	.	.	.	8g/J	8b-\J	.	.
=2	=2	=2	=2	=2	=2	=2	=2	=2	=2	=2	=2	=2	=2	=2	=2	=2	=2	=2	=2	=2	=2	=2	=2
!	!	!	!	!LO:TX:t=P:problem:mixed beam	!	!LO:TX:t=P:problem:mixed beam	!	!	!	!	!	!	!	!	!	!LO:TX:a:t=2	!LO:TX:a:t=2	!	!	!	!	!	!
4F\	.	4cc\)	.	8f/L	.	8an'>/L	p	.	.	.	.	.	.	.	.	0r	0r	4F\	.	4f/	4an/	1ryy	1ryy
.	.	.	.	8ccn\	.	8ee-'\	.	.	.	.	.	.	.	.	.	.	.	.	.	.	.	.	.
4r	p	4r	.	8cc\	.	8ee-'\	.	.	.	.	.	.	.	.	.	.	.	4r	.	4r	4r	.	.
.	.	.	.	8cc\J	.	8ee-'\J	.	.	.	.	.	.	.	.	.	.	.	.	.	.	.	.	.
!	!LO:DY:t=fr.	!	!LO:DY:t=pf&colon;	!	!	!	!	!	!	!	!	!	!	!	!	!	!	!	!LO:DY:t=p.f.	!	!	!	!
2F#X\	f	4an\	fp	4cc\	.	(8ee-\L	f	.	.	.	.	.	.	.	.	.	.	2FF#X/	fp	4r	4r	.	.
.	.	.	.	.	.	8dd\)	.	.	.	.	.	.	.	.	.	.	.	.	.	.	.	.	.
.	.	4dd\	.	8bn\L	.	(8dd\	.	.	.	.	.	.	.	.	.	.	.	.	.	8bn/L	8dd\L	.	.
.	.	.	.	8an\J	.	8cc\J)	.	.	.	.	.	.	.	.	.	.	.	.	.	8an/J	8cc\J	.	.
=3	=3	=3	=3	=3	=3	=3	=3	=3	=3	=3	=3	=3	=3	=3	=3	=3	=3	=3	=3	=3	=3	=3	=3
!	!	!	!	!	!	!	!	!	!	!	!	!	!	!	!	!	!	!	!	!	!LO:LB:g=original	!	!
4G\	.	4dd\	.	8g/	p	(8bn\L	p	1r	.	1r	.	1r	.	1r	.	.	.	8GG/	.	4g/	4bn\	1ryy	1ryy
.	.	.	.	4bn\	.	8gg\)	.	.	.	.	.	.	.	.	.	.	.	4r	.	.	.	.	.
!LO:N:vis=4	!	!	!	!	!	!	!	!	!	!	!	!	!	!	!	!	!	!	!	!	!	!	!
8r	.	8r	.	.	.	(8dd\	f	.	.	.	.	.	.	.	.	.	.	.	.	4r	4r	.	.
8Bn\	.	8g|\	.	8dd\	.	8ff\J)	.	.	.	.	.	.	.	.	.	.	.	8BBn/L	.	.	.	.	.
8c\L	.	8g|\L	.	8cc\L	.	8ee-\L	.	.	.	.	.	.	.	.	.	.	.	8C/	.	8cc\L	8ee-|\L	.	.
8G\J	.	8g|\J	.	8bn\J	.	8dd\J	.	.	.	.	.	.	.	.	.	.	.	8GG/J	.	8bn\J	8dd|\J	.	.
4r	.	4r	.	4r	.	4r	.	.	.	.	.	.	.	.	.	.	.	4r	.	4r	4r	.	.
=4	=4	=4!||:	=4	=4	=4	=4	=4	=4	=4	=4	=4	=4	=4	=4	=4	=4!||:	=4!||:	=4	=4	=4	=4	=4	=4
!LO:LB:g=original	!	!	!	!	!	!	!	!	!	!LO:TX:t=P:problem:all\left:global	!	!	!	!	!	!	!	!LO:TX:t=P:problem:mixed beam	!	!	!	!	!
8C/	.	16r	.	16r	.	16r	.	4C/	Ze	4.G/	Ze	4.e-\	Ze	4.cc\	Ze	4G/	4g\	16CC/LL	.	4cc\	4ee-\	1ryy	1ryy
.	.	16g'\LL	.	16e-/LL	.	16cc'\LL	.	.	.	.	.	.	.	.	.	.	.	16C/	.	.	.	.	.
8r	.	16g'\	.	16e-/	.	16cc'\	.	.	.	.	.	.	.	.	.	.	.	16c\	.	.	.	.	.
.	.	16g'\JJ	.	16e-/JJ	.	16cc'\JJ	.	.	.	.	.	.	.	.	.	.	.	16C/JJ	.	.	.	.	.
!	!	!	!	!	!	!	!	!	!	!	!	!	!	!	!	!	!	!LO:TX:t=P:problem:mixed beam	!	!	!	!	!
8C/	.	16r	.	16r	.	16r	.	8E-/	.	.	.	.	.	.	.	8G/L	8g\L	16CC/LL	.	8cc\L	8ee-\L	.	.
.	.	16g'\LL	.	16e-/LL	.	16cc'\LL	.	.	.	.	.	.	.	.	.	.	.	16C/	.	.	.	.	.
8r	.	16g'\	.	16e-/	.	16cc'\	.	8C/	wszech	8G/	wszech	8e-\	wszech	8cc\	wszech	8G/J	8g\J	16c\	.	8cc\J	8ee-\J	.	.
.	.	16g'\JJ	.	16e-/JJ	.	16cc'\JJ	.	.	.	.	.	.	.	.	.	.	.	16C/JJ	.	.	.	.	.
!	!	!	!	!LO:LB:g=original	!	!	!	!	!	!	!	!	!	!	!	!	!	!LO:TX:t=P:problem:mixed beam	!	!	!	!	!
!	!	!	!	!	!	!	!	!	!	!	!	!	!	!	!	!	!	!LO:LB:g=original	!	!	!	!	!
8G\	.	16r	.	16r	.	16r	.	4G\	Pa-	4G/	pa-	4e-\	Pa-	4cc\	Pa-	4G/	4g\	16GG/LL	.	4cc\	4ee-\	.	.
.	.	16g'\LL	.	16e-/LL	.	16cc'\LL	.	.	.	.	.	.	.	.	.	.	.	16G\	.	.	.	.	.
8r	.	16g'\	.	16e-/	.	16cc'\	.	.	.	.	.	.	.	.	.	.	.	16c\	.	.	.	.	.
.	.	16g'\JJ	.	16e-/JJ	.	16cc'\JJ	.	.	.	.	.	.	.	.	.	.	.	16G\JJ	.	.	.	.	.
!	!	!	!	!	!	!	!	!	!	!	!	!	!	!	!	!	!	!LO:TX:t=P:problem:mixed beam	!	!	!	!	!
8GG/	.	16r	.	16r	.	16r	.	4GG/	-nien	4G/	-nien	4d\	-nien	4bn\	-nien	4G/	4g\	16GG/LL	.	4bn\	4dd\	.	.
.	.	16g'\LL	.	16d/LL	.	16bn'\LL	.	.	.	.	.	.	.	.	.	.	.	16G\	.	.	.	.	.
8r	.	16g'\	.	16d/	.	16b'\	.	.	.	.	.	.	.	.	.	.	.	16Bn\	.	.	.	.	.
.	.	16g'\JJ	.	16d/JJ	.	16b'\JJ	.	.	.	.	.	.	.	.	.	.	.	16G\JJ	.	.	.	.	.
=5	=5	=5:||!	=5	=5	=5	=5	=5	=5	=5	=5	=5	=5	=5	=5	=5	=5:||!	=5:||!	=5	=5	=5	=5	=5	=5
!	!	!LO:TX:t=P:problem:t. 5 zapisany jako repetycja	!	!	!	!LO:LB:g=original	!	!	!	!	!	!	!	!	!	!LO:TX:t=P:problem:t. 5 zapisany jako repetycja	!LO:TX:t=P:problem:t. 5 zapisany jako repetycja	!LO:TX:t=P:problem:mixed beam	!	!	!	!	!
8G\	.	16ryy	.	16r	.	16r	.	4G\	Pan-	4.G/	Pan-	4.f\	Pan-	4.dd\	Pan-	4G/yy	4g\yy	16GG/LL	.	4dd\	4ff\	1ryy	1ryy
.	.	16g'\LLyy	.	16f/LL	.	16dd'\LL	.	.	.	.	.	.	.	.	.	.	.	16G\	.	.	.	.	.
!	!	!	!	!	!	!	!	!	!	!	!	!	!	!	!	!	!	!LO:SIC:v:s=Bn	!	!	!	!	!
8r	.	16g'\yy	.	16f/	.	16dd'\	.	.	.	.	.	.	.	.	.	.	.	16B-\	.	.	.	.	.
.	.	16g'\JJyy	.	16f/JJ	.	16dd'\JJ	.	.	.	.	.	.	.	.	.	.	.	16G\JJ	.	.	.	.	.
!	!	!	!	!	!	!	!	!	!	!	!	!	!	!	!	!	!	!LO:TX:t=P:problem:mixed beam	!	!	!	!	!
8G\	.	16ryy	.	16r	.	16r	.	8Bn\	-no	.	.	.	.	.	.	8G/Lyy	8g\Lyy	16GG/LL	.	8dd\L	8ff\L	.	.
.	.	16g'\LLyy	.	16f'/LL	.	16dd'\LL	.	.	.	.	.	.	.	.	.	.	.	16G\	.	.	.	.	.
8r	.	16g'\yy	.	16f'/	.	16dd'\	.	8G\	.	8G/	-no	8f\	-no	8dd\	-no	8G/Jyy	8g\Jyy	16Bn\	.	8dd\J	8ff\J	.	.
.	.	16g'\JJyy	.	16f'/JJ	.	16dd'\JJ	.	.	.	.	.	.	.	.	.	.	.	16G\JJ	.	.	.	.	.
!	!	!	!	!	!	!	!	!	!	!	!	!	!	!	!	!	!	!LO:TX:t=P:problem:mixed beam	!	!	!	!	!
8c\	.	16ryy	.	16r	.	16r	.	4c\	za-	4G/	za-	4f\	za-	4dd\	za-	4G/yy	4g\yy	16CC/LL	.	4dd\	4ff\	.	.
.	.	16g'\LLyy	.	16f'/LL	.	16dd'\LL	.	.	.	.	.	.	.	.	.	.	.	16C/	.	.	.	.	.
8r	.	16g'\yy	.	16f'/	.	16dd'\	.	.	.	.	.	.	.	.	.	.	.	16c\	.	.	.	.	.
.	.	16g'\JJyy	.	16f'/JJ	.	16dd'\JJ	.	.	.	.	.	.	.	.	.	.	.	16C/JJ	.	.	.	.	.
!	!	!	!	!	!	!	!	!	!	!	!	!	!	!	!	!	!	!LO:TX:t=P:problem:mixed beam	!	!	!	!	!
8C/	.	16ryy	.	16r	.	16r	.	4C/	-cna	4G/	-cna	4e-\	-cna	4cc\	-cna	4G/yy	4g\yy	16CC/LL	.	4cc\	4ee-\	.	.
.	.	16g'\LLyy	.	16e-/LL	.	16cc'\LL	.	.	.	.	.	.	.	.	.	.	.	16C/	.	.	.	.	.
8r	.	16g'\yy	.	16e-/	.	16cc'\	.	.	.	.	.	.	.	.	.	.	.	16c\	.	.	.	.	.
.	.	16g'\JJyy	.	16e-/JJ	.	16cc'\JJ	.	.	.	.	.	.	.	.	.	.	.	16C/JJ	.	.	.	.	.
=6	=6	=6	=6	=6	=6	=6	=6	=6	=6	=6	=6	=6	=6	=6	=6	=6	=6	=6	=6	=6	=6	=6	=6
*	*	*	*	*	*	*	*	*^	*	*	*	*	*	*	*	*	*	*	*	*	*	*	*
!	!	!LO:LB:g=original	!	!	!	!	!	!	!	!	!	!	!	!	!	!	!LO:TX:a:t=4	!LO:TX:a:t=4	!LO:TX:t=P:problem:mixed beam	!	!	!	!	!
8G\	.	16r	.	16r	.	16r	.	4G\	4ryy	bądz	4f\	bądz	4bn\	bądz	4dd\	bądz	00r	00r	16GG/LL	.	4bn\	4dd\	1ryy	1ryy
.	.	16f'\LL	.	16bn\LL	.	16dd'\LL	.	.	.	.	.	.	.	.	.	.	.	.	16G\	.	.	.	.	.
8r	.	16f'\	.	16b\	.	16dd'\	.	.	.	.	.	.	.	.	.	.	.	.	16Bn\	.	.	.	.	.
.	.	16f'\JJ	.	16b\JJ	.	16dd'\JJ	.	.	.	.	.	.	.	.	.	.	.	.	16G\JJ	.	.	.	.	.
!	!	!	!	!	!	!	!	!LO:TX:t=P:problem:4\right	!	!	!	!	!	!	!	!	!	!	!LO:TX:t=P:problem:mixed beam	!	!	!	!	!
8GG/	.	16r	.	16r	.	(16gg\LL	.	4G\	4GG/	.	4d\	.	4b\	.	4dd\	.	.	.	16GG/LL	.	4b\	4gg\	.	.
.	.	16d'\LL	.	16b\LL	.	16dd\	.	.	.	.	.	.	.	.	.	.	.	.	16G\	.	.	.	.	.
8r	.	16d'\	.	16b\	.	16gg\	.	.	.	.	.	.	.	.	.	.	.	.	16Bn\	.	.	.	.	.
.	.	16d'\JJ	.	16b\JJ	.	16ff\JJ)	.	.	.	.	.	.	.	.	.	.	.	.	16G\JJ	.	.	.	.	.
!	!	!	!	!	!	!	!	!	!	!	!	!	!	!	!:global	!	!	!	!LO:TX:t=P:problem:mixed beam	!	!	!	!	!
8C/	.	16r	.	16r	.	16r	.	2C/	2ryy	tak	4e-\	tak	2g\	tak	2ee-\	tak	.	.	16CC/LL	.	2cc\	2ee-\	.	.
.	.	16g'\LL	.	16cc\LL	.	16ee-'\LL	.	.	.	.	.	.	.	.	.	.	.	.	16C/	.	.	.	.	.
8r	.	16g'\	.	16cc\	.	16ee-'\	.	.	.	.	.	.	.	.	.	.	.	.	16c\	.	.	.	.	.
.	.	16g'\JJ	.	16cc\JJ	.	16ee-'\JJ	.	.	.	.	.	.	.	.	.	.	.	.	16C/JJ	.	.	.	.	.
!	!	!	!	!	!	!	!	!	!	!	!	!	!	!	!	!	!	!	!LO:TX:t=P:problem:mixed beam	!	!	!	!	!
8c\	.	16r	.	(16cc\LL	.	16r	.	.	.	.	4c\	.	.	.	.	.	.	.	16CC/LL	.	.	.	.	.
.	.	16g'\LL	.	16g\	.	16ee-'\LL	.	.	.	.	.	.	.	.	.	.	.	.	16C/	.	.	.	.	.
8r	.	16g'\	.	16cc\	.	16ee-'\	.	.	.	.	.	.	.	.	.	.	.	.	16c\	.	.	.	.	.
.	.	16g'\JJ	.	16b-X\JJ)	.	16ee-'\JJ	.	.	.	.	.	.	.	.	.	.	.	.	16C/JJ	.	.	.	.	.
*	*	*	*	*	*	*	*	*v	*v	*	*	*	*	*	*	*	*	*	*	*	*	*	*	*
=7	=7	=7	=7	=7	=7	=7	=7	=7	=7	=7	=7	=7	=7	=7	=7	=7	=7	=7	=7	=7	=7	=7	=7
!	!	!	!	!	!	!	!	!	!	!	!	!	!	!	!	!	!	!LO:TX:t=P:problem:mixed beam	!	!LO:LB:g=original	!	!	!
8F\	.	16r	.	16r	.	16r	.	4F\	pro-	4c\	pro-	4a-X\	pro-	4cc\	pro-	.	.	16FF/LL	.	2a-X/	(4cc\	1ryy	1ryy
.	.	16c'\LL	.	16a-X/LL	.	16cc'\LL	.	.	.	.	.	.	.	.	.	.	.	16F\	.	.	.	.	.
8r	.	16c'\	.	16a-/	.	16cc'\	.	.	.	.	.	.	.	.	.	.	.	16A-X\	.	.	.	.	.
.	.	16c'\JJ	.	16a-/JJ	.	16cc'\JJ	.	.	.	.	.	.	.	.	.	.	.	16F\JJ	.	.	.	.	.
!	!	!	!	!	!	!	!	!	!	!	!	!	!	!	!	!	!	!LO:TX:t=P:problem:mixed beam	!	!	!	!	!
8F\	.	16r	.	16r	.	(16ff\LL	.	4FF/	.	4f\	.	4a-\	.	4cc\	.	.	.	16FF/LL	.	.	4aa-\)	.	.
.	.	16f'\LL	.	16a-/LL	.	16cc\	.	.	.	.	.	.	.	.	.	.	.	16F\	.	.	.	.	.
8r	.	16f'\	.	16a-/	.	16ff\	.	.	.	.	.	.	.	.	.	.	.	16A-\	.	.	.	.	.
.	.	16f'\JJ	.	16a-/JJ	.	16ee-\JJ)	.	.	.	.	.	.	.	.	.	.	.	16F\JJ	.	.	.	.	.
!	!	!	!	!	!	!	!	!	!	!	!	!	!	!	!	!	!	!LO:TX:t=P:problem:mixed beam	!	!	!	!	!
8BB-/	.	16r	.	16r	.	16r	.	2BB-/	-sze	4d\	.	2f\	-sze	2dd\	-szę	.	.	16BBB-/LL	.	2b-/	2dd\	.	.
.	.	16d'\LL	.	16b-\LL	.	16dd'\LL	.	.	.	.	.	.	.	.	.	.	.	16BB-/	.	.	.	.	.
8r	.	16d'\	.	16b-\	.	16dd'\	.	.	.	.	.	.	.	.	.	.	.	16B-\	.	.	.	.	.
.	.	16d'\JJ	.	16b-\JJ	.	16dd'\JJ	.	.	.	.	.	.	.	.	.	.	.	16BB-/JJ	.	.	.	.	.
!	!	!	!	!	!	!	!	!	!	!	!	!	!	!	!	!	!	!LO:TX:t=P:problem:mixed beam	!	!	!	!	!
!	!	!	!	!	!	!	!	!	!	!	!	!	!	!	!	!	!	!LO:LB:g=original	!	!	!	!	!
8B-\	.	16r	.	16b-\LL	.	16r	.	.	.	4B-\	-sze	.	.	.	.	.	.	16BBB-/LL	.	.	.	.	.
!	!	!LO:TX:t=P:problem:16/left	!	!	!	!	!	!	!	!	!	!	!	!	!	!	!	!	!	!	!	!	!
.	.	16B-X'/LL	.	16f\	.	16dd'\LL	.	.	.	.	.	.	.	.	.	.	.	16BB-/	.	.	.	.	.
!	!	!LO:TX:t=P:problem:16/left	!	!	!	!	!	!	!	!	!	!	!	!	!	!	!	!	!	!	!	!	!
8r	.	16B-'/	.	16b-\	.	16dd'\	.	.	.	.	.	.	.	.	.	.	.	16B-\	.	.	.	.	.
!	!	!LO:TX:t=P:problem:16/left	!	!	!	!	!	!	!	!	!	!	!	!	!	!	!	!	!	!	!	!	!
.	.	16B-'/JJ	.	16a-\JJ	.	16dd'\JJ	.	.	.	.	.	.	.	.	.	.	.	16BB-/JJ	.	.	.	.	.
=8	=8	=8	=8	=8	=8	=8	=8	=8	=8	=8	=8	=8	=8	=8	=8	=8	=8	=8	=8	=8	=8	=8	=8
!	!	!	!	!LO:LB:g=original	!	!	!	!LO:LB:g=original	!	!LO:LB:g=original	!	!	!	!	!	!	!	!LO:TX:t=P:problem:mixed beam	!	!	!	!	!
8E-\	.	16r	.	16r	.	16r	.	4E-\	na-	4B-\	na	4g\	na	4b-\	na	.	.	16EE-/LL	.	2g/	(4b-X\	1ryy	1ryy
!	!	!LO:TX:t=P:problem:16/left	!	!	!	!	!	!	!	!	!	!	!	!	!	!	!	!	!	!	!	!	!
.	.	16B-'/LL	.	16g'/LL	.	16b-X'\LL	.	.	.	.	.	.	.	.	.	.	.	16E-\	.	.	.	.	.
!	!	!LO:TX:t=P:problem:16/left	!	!	!	!	!	!	!	!	!	!	!	!	!	!	!	!	!	!	!	!	!
8r	.	16B-'/	.	16g'/	.	16b-'\	.	.	.	.	.	.	.	.	.	.	.	16G\	.	.	.	.	.
!	!	!LO:TX:t=P:problem:16/left	!	!	!	!	!	!	!	!	!	!	!	!	!	!	!	!	!	!	!	!	!
.	.	16B-'/JJ	.	16g'/JJ	.	16b-'\JJ	.	.	.	.	.	.	.	.	.	.	.	16E-\JJ	.	.	.	.	.
!	!	!	!	!	!	!LO:LB:g=original	!	!	!	!	!	!	!	!	!	!	!	!LO:TX:t=P:problem:mixed beam	!	!	!	!	!
8E-\	.	16r	.	16r	.	(16ee-X\LL	.	4e-\	-mnie	4e-\	mnie	4g\	.	4b-\	mnie	.	.	16EE-/LL	.	.	4ee-X\)	.	.
.	.	16e-'\LL	.	16g'/LL	.	16b-\	.	.	.	.	.	.	.	.	.	.	.	16E-\	.	.	.	.	.
8r	.	16e-'\	.	16g'/	.	16ee-\	.	.	.	.	.	.	.	.	.	.	.	16G\	.	.	.	.	.
.	.	16e-'\JJ	.	16g'/JJ	.	16dd\JJ)	.	.	.	.	.	.	.	.	.	.	.	16E-\JJ	.	.	.	.	.
!	!	!	!	!	!	!	!	!	!	!	!	!	!	!	!	!	!	!LO:TX:t=P:problem:mixed beam	!	!	!	!	!
8AA-X/	.	16r	.	16r	.	16r	.	2A-X\	ba-	4c\	ba-	2e-\	mie	2cc\	bacz-	.	.	16AA-X/LL	.	2a-/	2cc\	.	.
.	.	16c'\LL	.	16a-X/LL	.	16cc'\LL	.	.	.	.	.	.	.	.	.	.	.	16A-\	.	.	.	.	.
8r	.	16c'\	.	16a-/	.	16cc'\	.	.	.	.	.	.	.	.	.	.	.	16c\	.	.	.	.	.
.	.	16c'\JJ	.	16a-/JJ	.	16cc'\JJ	.	.	.	.	.	.	.	.	.	.	.	16A-\JJ	.	.	.	.	.
!	!	!	!	!	!	!	!	!	!	!	!	!	!	!	!	!	!	!LO:TX:t=P:problem:mixed beam	!	!	!	!	!
8A-X\	.	16r	.	16a-/LL	.	16r	.	.	.	4A-X\	-czna	.	.	.	.	.	.	16AA-/LL	.	.	.	.	.
!	!	!LO:TX:t=P:problem:16/left	!	!	!	!	!	!	!	!	!	!	!	!	!	!	!	!	!	!	!	!	!
.	.	16A-X'/LL	.	16e-/	.	16cc'\LL	.	.	.	.	.	.	.	.	.	.	.	16A-\	.	.	.	.	.
!	!	!LO:TX:t=P:problem:16/left	!	!	!	!	!	!	!	!	!	!	!	!	!	!	!	!	!	!	!	!	!
8r	.	16A-'/	.	16a-/	.	16cc'\	.	.	.	.	.	.	.	.	.	.	.	16c\	.	.	.	.	.
!	!	!LO:TX:t=P:problem:16/left	!	!	!	!	!	!	!	!	!	!	!	!	!	!	!	!	!	!	!	!	!
.	.	16A-'/JJ	.	16g/JJ	.	16cc'\JJ	.	.	.	.	.	.	.	.	.	.	.	16A-\JJ	.	.	.	.	.
=9	=9	=9	=9	=9	=9	=9	=9	=9	=9	=9	=9	=9	=9	=9	=9	=9	=9	=9	=9	=9	=9	=9	=9
!	!	!	!	!	!	!	!	!	!	!	!	!LO:LB:g=original	!	!	!	!	!	!LO:TX:t=P:problem:mixed beam	!	!	!	!	!
8D\	.	16r	.	16r	.	16r	.	4D\	-czna	4A-\	Day	4f\	bacz-	4a-X\	-na	.	.	16DD/LL	.	2f/	(4a-X/	1ryy	1ryy
!	!	!LO:TX:t=P:problem:16/left	!	!	!	!	!	!	!	!	!	!	!	!	!	!	!	!	!	!	!	!	!
.	.	16A-'/LL	.	16f/LL	.	16a-X'/LL	.	.	.	.	.	.	.	.	.	.	.	16D\	.	.	.	.	.
!	!	!LO:TX:t=P:problem:16/left	!	!	!	!	!	!	!	!	!	!	!	!	!	!	!	!	!	!	!	!	!
8r	.	16A-'/	.	16f/	.	16a-'/	.	.	.	.	.	.	.	.	.	.	.	16d\	.	.	.	.	.
!	!	!LO:TX:t=P:problem:16/left	!	!	!	!	!	!	!	!	!	!	!	!	!	!	!	!	!	!	!	!	!
.	.	16A-'/JJ	.	16f/JJ	.	16a-'/JJ	.	.	.	.	.	.	.	.	.	.	.	16D\JJ	.	.	.	.	.
!	!	!	!	!	!	!	!	!	!	!	!	!	!	!	!	!	!	!LO:TX:t=P:problem:mixed beam	!	!	!	!	!
8D\	.	16r	.	16r	.	(16dd\LL	.	4d\	.	4d\	.	4f\	-na	4a-\	Day	.	.	16DD/LL	.	.	4dd\)	.	.
.	.	16d'\LL	.	16f/LL	.	16a-\	.	.	.	.	.	.	.	.	.	.	.	16D\	.	.	.	.	.
8r	.	16d'\	.	16f/	.	16dd\	.	.	.	.	.	.	.	.	.	.	.	16d\	.	.	.	.	.
.	.	16d'\JJ	.	16f/JJ	.	16cc\JJ)	.	.	.	.	.	.	.	.	.	.	.	16D\JJ	.	.	.	.	.
!	!	!	!	!	!	!	!	!	!	!	!	!	!	!	!	!	!	!LO:TX:t=P:problem:mixed beam	!	!	!	!	!
8GG/	.	16r	.	16r	.	16r	.	2G\	day	4Bn\	.	2d\	Day	2bn\	[[się]]	.	.	16GG/LL	.	2g/	2bn\	.	.
!	!	!LO:TX:t=P:problem:16/left	!	!	!	!	!	!	!	!	!	!	!	!	!	!	!	!	!	!	!	!	!
.	.	16Bn'/LL	.	16g'/LL	.	16bn'\LL	.	.	.	.	.	.	.	.	.	.	.	16G\	.	.	.	.	.
!	!	!LO:TX:t=P:problem:16/left	!	!	!	!	!	!	!	!	!	!	!	!	!	!	!	!	!	!	!	!	!
8r	.	16B'/	.	16g'/	.	16b'\	.	.	.	.	.	.	.	.	.	.	.	16Bn\	.	.	.	.	.
!	!	!LO:TX:t=P:problem:16/left	!	!	!	!	!	!	!	!	!	!	!	!	!	!	!	!	!	!	!	!	!
.	.	16B'/JJ	.	16g'/JJ	.	16b'\JJ	.	.	.	.	.	.	.	.	.	.	.	16G\JJ	.	.	.	.	.
!	!	!LO:LB:g=original	!	!	!	!	!	!	!	!	!	!	!	!	!	!	!	!LO:TX:t=P:problem:mixed beam	!	!	!	!	!
8G\	.	16r	.	16g/LL	.	16r	.	.	.	4G\	si	.	.	.	.	.	.	16GG/LL	.	.	.	.	.
!	!	!LO:TX:t=P:problem:16/left	!	!	!	!	!	!	!	!	!	!	!	!	!	!	!	!	!	!	!	!	!
.	.	16G'/LL	.	(16d/	.	16b'\LL	.	.	.	.	.	.	.	.	.	.	.	16G\	.	.	.	.	.
!	!	!LO:TX:t=P:problem:16/left	!	!	!	!	!	!	!	!	!	!	!	!	!	!	!	!	!	!	!	!	!
8r	.	16G'/	.	16g/	.	16b'\	.	.	.	.	.	.	.	.	.	.	.	16B\	.	.	.	.	.
!	!	!LO:TX:t=P:problem:16/left	!	!	!	!	!	!	!	!	!	!	!	!	!	!	!	!	!	!	!	!	!
.	.	16G'/JJ	.	16f/JJ)	.	16b'\JJ	.	.	.	.	.	.	.	.	.	.	.	16G\JJ	.	.	.	.	.
=10	=10	=10	=10	=10	=10	=10	=10	=10	=10	=10	=10	=10	=10	=10	=10	=10	=10	=10	=10	=10	=10	=10	=10
!LO:LB:g=original	!	!	!	!	!	!	!	!LO:TX:t=P:problem:korekty	!	!	!	!LO:TX:t=P:problem:pauza albo nuta? 	!	!LO:LB:g=original	!	!	!	!LO:TX:t=P:problem:mixed beam	!	!	!	!	!
8G\	.	16r	.	16r	.	16r	.	4G\	się	2G/	z so-	4d\	się	4bn\	się	4G/	4g\	16GG/LL	.	(4bn\	(4dd\	1ryy	1ryy
!	!	!	!	!	!	!LO:SIC:v:s=16bn'\LL	!	!	!	!	!	!	!	!	!	!	!	!	!	!	!	!	!
.	.	16g'\LL	.	16d/LL	.	16b-'\LL	.	.	.	.	.	.	.	.	.	.	.	16G\	.	.	.	.	.
!	!	!	!	!	!	!LO:SIC:v:s=16b'\	!	!	!	!	!	!	!	!	!	!	!	!	!	!	!	!	!
8r	.	16g'\	.	16d/	.	16b-'\	.	.	.	.	.	.	.	.	.	.	.	16Bn\	.	.	.	.	.
!	!	!	!	!	!	!LO:SIC:v:s=16b'\JJ	!	!	!	!	!	!	!	!	!	!	!	!	!	!	!	!	!
.	.	16g'\JJ	.	16d/JJ	.	16b-'\JJ	.	.	.	.	.	.	.	.	.	.	.	16G\JJ	.	.	.	.	.
!	!	!	!	!	!	!	!	!	!	!	!	!	!	!	!	!	!	!LO:TX:t=P:problem:mixed beam	!	!	!	!	!
8E-\	.	16r	.	16r	.	16r	.	4E-\	z so-	.	.	4e-\	z so-	4cc\	z so-	4G/	4g\	16EE-/LL	.	4cc\	4ee-\	.	.
.	.	16g'\LL	.	16e-/LL	.	16cc'\LL	.	.	.	.	.	.	.	.	.	.	.	16E-\	.	.	.	.	.
8r	.	16g'\	.	16e-/	.	16cc'\	.	.	.	.	.	.	.	.	.	.	.	16G\	.	.	.	.	.
.	.	16g'\JJ	.	16e-/JJ	.	16cc'\JJ	.	.	.	.	.	.	.	.	.	.	.	16E-\JJ	.	.	.	.	.
!	!	!	!	!	!	!	!	!	!	!	!	!	!	!	!	!	!	!LO:TX:t=P:problem:mixed beam	!	!	!	!	!
8BBn/	.	16r	.	16r	.	16r	.	4BBn/	-bą	4G/	-bą	4f\	-bą	4dd\	-bą	4G/	4g\	16BBn/LL	.	4dd\)	4ff\	.	.
.	.	16g'\LL	.	16f'/LL	.	16dd'\LL	.	.	.	.	.	.	.	.	.	.	.	16Bn\	.	.	.	.	.
8r	.	16g'\	.	16f'/	.	16dd'\	.	.	.	.	.	.	.	.	.	.	.	16d\	.	.	.	.	.
.	.	16g'\JJ	.	16f'/JJ	.	16dd'\JJ	.	.	.	.	.	.	.	.	.	.	.	16B\JJ	.	.	.	.	.
!	!	!	!	!	!	!	!	!LO:TX:t=P:problem:4/left	!	!	!	!	!	!	!	!	!	!LO:TX:t=P:problem:mixed beam	!	!	!	!	!
8C/	.	16r	.	16r	.	16r	.	4C/	na-	4G/	na-	4e-\	na	4cc\	na	4G/	4g\	16CC/LL	.	4cc\	4ee-\)	.	.
.	.	16g'\LL	.	16e-/LL	.	16cc'\LL	.	.	.	.	.	.	.	.	.	.	.	16C/	.	.	.	.	.
8r	.	16g'\	.	16e-/	.	16cc'\	.	.	.	.	.	.	.	.	.	.	.	16c\	.	.	.	.	.
.	.	16g'\JJ	.	16e-/JJ	.	16cc'\JJ	.	.	.	.	.	.	.	.	.	.	.	16C/JJ	.	.	.	.	.
=11	=11	=11	=11	=11	=11	=11	=11	=11	=11	=11	=11	=11	=11	=11	=11	=11	=11	=11	=11	=11	=11	=11	=11
!	!	!	!	!	!	!	!	!	!	!	!	!	!	!	!	!	!	!LO:LB:g=original	!	!	!	!	!
!	!	!	!	!	!	!	!	!	!	!	!	!	!	!	!	!	!	!LO:TX:t=P:problem:mixed beam	!	!	!	!	!
8C/	.	16r	.	16r	.	16r	.	2C/	-pła-	2G/	-ła-	2e-\	pła-	2cc\	pła-	2G/	2g\	16CC/LL	.	2cc\	2ee-\	1ryy	1ryy
.	.	16g'\LL	.	16e-/LL	.	16cc'\LL	.	.	.	.	.	.	.	.	.	.	.	16C/	.	.	.	.	.
8r	.	16g'\	.	16e-/	.	16cc'\	.	.	.	.	.	.	.	.	.	.	.	16c\	.	.	.	.	.
.	.	16g'\JJ	.	16e-/JJ	.	16cc'\JJ	.	.	.	.	.	.	.	.	.	.	.	16C/JJ	.	.	.	.	.
!	!	!	!	!	!	!LO:LB:g=original	!	!	!	!	!	!	!	!	!	!	!	!LO:TX:t=P:problem:mixed beam	!	!	!	!	!
8C/	.	16r	.	16e-/LL	.	16cc'\LL	.	.	.	.	.	.	.	.	.	.	.	16CC/LL	.	.	.	.	.
.	.	16g'\LL	.	16e-/	.	16cc'\	.	.	.	.	.	.	.	.	.	.	.	16G\	.	.	.	.	.
8r	.	16g'\	.	16e-/	.	16cc'\	.	.	.	.	.	.	.	.	.	.	.	16E-\	.	.	.	.	.
.	.	16g'\JJ	.	16e-/JJ	.	16cc'\JJ	.	.	.	.	.	.	.	.	.	.	.	16C\JJ	.	.	.	.	.
!	!	!	!	!	!	!LO:SIC:v:s=(16bn\LL	!	!LO:TX:t=P:problem:4/left	!	!	!	!	!	!	!	!	!	!	!	!	!	!	!
2GG/	.	4g\	.	4d/	.	(16b-\LL	.	4GG/	-kać	4G/	-kać	4d\	-kać	4bn\	-kać	4G/	4g\	2GG/	.	4bn\	4dd\	.	.
.	.	.	.	.	.	16gg\	.	.	.	.	.	.	.	.	.	.	.	.	.	.	.	.	.
.	.	.	.	.	.	16ff#X\)	.	.	.	.	.	.	.	.	.	.	.	.	.	.	.	.	.
.	.	.	.	.	.	16gg\JJ	.	.	.	.	.	.	.	.	.	.	.	.	.	.	.	.	.
.	.	8d\L	.	8bn\L	.	(16dd\LL	.	4r	.	4r	.	4r	.	4r	.	4r	4r	.	.	4r	4r	.	.
.	.	.	.	.	.	16gg\	.	.	.	.	.	.	.	.	.	.	.	.	.	.	.	.	.
.	.	8e-\J	.	8cc\J	.	16ee-\	.	.	.	.	.	.	.	.	.	.	.	.	.	.	.	.	.
.	.	.	.	.	.	16gg\JJ)	.	.	.	.	.	.	.	.	.	.	.	.	.	.	.	.	.
=12	=12	=12	=12	=12	=12	=12	=12	=12	=12	=12	=12	=12	=12	=12	=12	=12	=12	=12	=12	=12	=12	=12	=12
!	!	!	!	!LO:LB:g=original	!	!LO:TX:a:t=d	!	!	!	!	!	!	!	!	!	!	!	!	!	!	!	!	!
!	!LO:HP:a:t=Diminuendo	!	!	!LO:SIC:v:s=4bn\	!	!LO:TX:t=P:problem:mixed beam	!	!LO:TX:a:t=2.	!	!LO:TX:a:t=2	!	!LO:TX:a:t=2	!	!LO:TX:a:t=2	!	!	!	!	!	!LO:TX:a:t=2.	!	!	!
2GG/	>	8d\L	.	4b-\	.	16dd\LL	.	0r	.	0r	.	0r	.	0r	.	2r	2r	2GG/	.	0r	0r	1ryy	1ryy
.	.	.	.	.	.	(16g/	.	.	.	.	.	.	.	.	.	.	.	.	.	.	.	.	.
.	.	8g\J	.	.	.	16f#X/	.	.	.	.	.	.	.	.	.	.	.	.	.	.	.	.	.
.	.	.	.	.	.	16g/JJ)	.	.	.	.	.	.	.	.	.	.	.	.	.	.	.	.	.
!	!	!LO:TX:t=P:problem:4/left	!	!	!	!	!	!	!	!	!	!	!	!	!	!	!	!	!	!	!	!	!
.	.	4G/	.	8Bn/L	.	16d/LL	.	.	.	.	.	.	.	.	.	.	.	.	.	.	.	.	.
.	.	.	.	.	.	(16g/	.	.	.	.	.	.	.	.	.	.	.	.	.	.	.	.	.
.	.	.	.	8c/J	.	16e-/	.	.	.	.	.	.	.	.	.	.	.	.	.	.	.	.	.
.	.	.	.	.	.	16g/JJ)	.	.	.	.	.	.	.	.	.	.	.	.	.	.	.	.	.
!	!	!LO:TX:t=P:problem:4/left	!	!	!	!	!	!	!	!	!	!	!	!	!	!	!	!	!	!	!	!	!
4GG/	.	4G/	.	4B/	.	4d/	.	.	.	.	.	.	.	.	.	4G/	4g\	8GG/L	.	.	.	.	.
.	.	.	.	.	.	.	.	.	.	.	.	.	.	.	.	.	.	8G\	.	.	.	.	.
!	!	!LO:TX:t=P:problem:8/left	!	!	!	!	!	!	!	!	!	!	!	!	!	!	!	!	!	!	!	!	!
8GG/L	.	8G/L	.	8B/L	.	8d/L	.	.	.	.	.	.	.	.	.	8G/L	8g\L	8GG/	.	.	.	.	.
!	!	!LO:TX:t=P:problem:8/left	!	!	!	!	!	!	!	!	!	!	!	!	!	!	!	!	!	!	!	!	!
8GG/J	.	8G/J	.	8B/J	.	8d/J	.	.	.	.	.	.	.	.	.	8G/J	8g\J	8G\J	.	.	.	.	.
=13	=13	=13	=13	=13	=13	=13	=13	=13	=13	=13	=13	=13	=13	=13	=13	=13	=13	=13	=13	=13	=13	=13	=13
!	!	!LO:TX:t=P:problem:4/left	!	!LO:SIC:v:s=4Bn/	!	!	!	!	!	!	!	!	!	!	!	!LO:LB:g=original	!	!	!	!	!	!	!
4GG/	.	4G/	.	4B-/	.	4d/	.	.	.	.	.	.	.	.	.	4G/	4g\	4GG/	.	.	.	1ryy	1ryy
4r	.	4r	.	4r	.	4r	.	.	.	.	.	.	.	.	.	4r	4r	4r	.	.	.	.	.
2r	.	2r	.	2r	.	2r	.	.	.	.	.	.	.	.	.	2r	2r	2r	.	.	.	.	.
==	==	==	==	==	==	==	==	==	==	==	==	==	==	==	==	==	==	==	==	==	==	==	==
*-	*-	*-	*-	*-	*-	*-	*-	*-	*-	*-	*-	*-	*-	*-	*-	*-	*-	*-	*-	*-	*-	*-	*-
!!!system-decoration: [(g1)][(g2)][(g3)][(g4)](s15)
!!!RDF**kern: > = above
!!!RDF**kern: < = below
!!!RDF**kern: | = vertical stroke
!!!ENC: Marcin Jachim
!!!END: 2020-11-10
!!!ENC: Krzysztof Stępień
!!!END: 2022-04-26
